docs/assets/images/calc-svg/chamfer-11.svg

<svg width="80" height="44" viewBox="0 0 80 44" fill="none" xmlns="http://www.w3.org/2000/svg">
<path d="M1.71691 36.9478L1 13.5971L23.7482 17.9847C30.5786 19.3022 35.514 25.2804 35.514 32.2367L35.408 34.9286C35.2767 38.2643 33.2449 40.9962 30.4742 42.2534C30.3463 42.3115 30.2169 42.3663 30.086 42.418C28.5284 43.0326 26.7641 43.1903 24.9855 42.747L1.71691 36.9478Z" fill="#D2D2D2"/>
<path d="M69.5448 4.15264L47.9062 1L1 13.5971L23.7482 17.9847C30.5786 19.3022 35.514 25.2804 35.514 32.2367L35.408 34.9286C35.2767 38.2643 33.2449 40.9962 30.4742 42.2534L73.6125 23.969C76.3802 22.8129 78.4596 20.2035 78.7498 16.963L78.8357 14.8952C78.8357 9.5042 74.8795 4.92988 69.5448 4.15264Z" fill="#D2D2D2"/>
<path d="M1 13.5971L47.9062 1L69.5448 4.15264C74.8795 4.92988 78.8357 9.5042 78.8357 14.8952L78.7498 16.963C78.4596 20.2035 76.3802 22.8129 73.6125 23.969L30.4742 42.2534M1 13.5971L1.71691 36.9478L24.9855 42.747C26.7641 43.1903 28.5284 43.0326 30.086 42.418M1 13.5971L23.7482 17.9847C30.5786 19.3022 35.514 25.2804 35.514 32.2367L35.408 34.9286C35.2767 38.2643 33.2449 40.9962 30.4742 42.2534M30.086 42.418L30.4742 42.2534M30.086 42.418C30.2169 42.3663 30.3463 42.3115 30.4742 42.2534" stroke="#838383"/>
</svg>

<svg width="80" height="44" fill="none" xmlns="http://www.w3.org/2000/svg"><path d="M1.717 36.948L1 13.598l22.748 4.387a14.515 14.515 0 0111.766 14.252l-.106 2.692c-.131 3.335-2.163 6.067-4.934 7.324a8.335 8.335 0 01-5.489.494l-23.268-5.8z" fill="#D2D2D2"/><path d="M69.545 4.153L47.906 1 1 13.597l22.748 4.388a14.515 14.515 0 0111.766 14.252l-.106 2.692c-.131 3.335-2.163 6.067-4.934 7.324L73.613 23.97a8.391 8.391 0 005.137-7.006l.086-2.068c0-5.39-3.957-9.965-9.291-10.742z" fill="#D2D2D2"/><path d="M1 13.597L47.906 1l21.639 3.153a10.856 10.856 0 019.29 10.742l-.085 2.068a8.391 8.391 0 01-5.138 7.006L30.474 42.253M1 13.597l.717 23.35 23.268 5.8a8.335 8.335 0 005.101-.329M1 13.598l22.748 4.387a14.515 14.515 0 0111.766 14.252l-.106 2.692c-.131 3.335-2.163 6.067-4.934 7.324m-.388.165l.388-.165m-.388.165c.13-.052.26-.106.388-.165" stroke="#838383"/></svg>
